X: 2
T: Son Ar Rost
R: slide
M: 12/8
L: 1/8
K: Ador
|: A3 A2B | AGE c2d | cBA B2c | A2G EFG | A3 A2B | AGE c2d | cBA GAB | A3 A2E :||: A2B d3 | cBA G2B | c2B A2E | GAB E2D |EAB d3 | cBA G2B | c2B ABG | A3 A2E :|


Tune 3287	Setting 3287

